X:565
T: Highlander's Kneebuckle
T: B\'ucla Gl\'uine an H\'ileant\'ora
S: B.Breathnach: "Ceol Rince na hEireann" II/136
Z: B.Black
L: 1/8
M: 4/4
R: reel
K: G
BGdG eGdG|(3BBG dG BAAc|BGdG eGBd|egfa gedc|
BGdG (3eeG dG|BGdG BAAc|BGdG (3eeG Bd|egfa g2-g2||
dgbg agbg|dgbg ag (3efg|dgbg agbg|abag edeg|
dgbg agbg|dgbg agea|(3bag (3agf gfed|egfa gedc||

